picto/quiet-zone-framed.svg

<svg class="color-immutable" width="30" height="30" viewBox="0 0 30 30" fill="none" xmlns="http://www.w3.org/2000/svg"><path d="M29.9999 29.9999H0V0H29.9999V29.9999Z" fill="#2D327D"/><path d="M25.4999 2.99999C26.3249 2.99999 26.9999 3.67499 26.9999 4.49999V25.4999C26.9999 26.3249 26.3249 26.9999 25.4999 26.9999H4.49999C3.67499 26.9999 2.99999 26.3249 2.99999 25.4999V4.49999C2.99999 3.67499 3.67499 2.99999 4.49999 2.99999H25.4999ZM25.4999 2.62499H4.49999C3.46612 2.62499 2.62499 3.46612 2.62499 4.49999V25.4999C2.62499 26.5338 3.46612 27.3749 4.49999 27.3749H25.4999C26.5338 27.3749 27.3749 26.5338 27.3749 25.4999V4.49999C27.3749 3.46612 26.5338 2.62499 25.4999 2.62499Z" fill="white"/><path d="M10.7776 6.70872C10.4625 6.46813 10.0705 6.3239 9.64307 6.3239C9.26694 6.3239 8.91774 6.43573 8.62405 6.62608L8.6236 6.62578L5.98278 8.15052H10.7775V6.70872H10.7776Z" fill="white"/><path d="M13.41 10.6476C15.1997 10.3957 16.8266 9.63845 18.1433 8.52537H13.41V10.6476Z" fill="white"/><path d="M13.41 8.15046H18.2051L15.5643 6.62571L15.5638 6.62601C15.2705 6.43566 14.9208 6.32384 14.5447 6.32384C14.1174 6.32384 13.7252 6.46814 13.41 6.70866V8.15046Z" fill="white"/><path d="M10.7776 8.52537H6.04467C7.36114 9.63845 8.98826 10.3957 10.7777 10.6476V8.52537H10.7776Z" fill="white"/><path d="M18.8457 13.0643C18.3281 13.0643 17.9082 13.4842 17.9082 14.0015V16.451H17.5326V12.8685C17.5326 12.3509 17.113 11.9314 16.5951 11.9314C16.0773 11.9314 15.6577 12.3509 15.6577 12.8685V15.7189H15.2821V12.1206C15.2821 11.6027 14.8626 11.1833 14.3447 11.1833C13.827 11.1833 13.407 11.6027 13.407 12.1206V14.9476H13.0315V6.91694C13.0315 6.39907 12.6121 5.9793 12.094 5.9793C11.5764 5.9793 11.1565 6.39907 11.1565 6.91694V17.2301H10.7809L10.7797 17.2309V14.8229C10.7797 14.2276 10.4053 13.6977 9.84366 13.4993C9.76926 13.4734 9.69066 13.4596 9.60966 13.4596C9.22326 13.4594 8.90864 13.7743 8.90864 14.1611V18.6849L8.90587 18.6871C8.90587 19.155 9.00277 19.6385 9.15869 20.0148C9.31439 20.391 10.809 24 10.809 24L18.5859 23.9991L19.5457 21.6717C19.7044 21.2569 19.7832 20.8173 19.7832 20.3466C19.7832 20.2826 19.7832 14.0015 19.7832 14.0015C19.7831 13.4842 19.3635 13.0643 18.8457 13.0643Z" fill="white"/></svg>

<svg class="color-immutable" width="30" height="30" viewBox="0 0 30 30" fill="none" xmlns="http://www.w3.org/2000/svg"><path d="M30 30H0V0h30v30Z" fill="#2D327D"/><path d="M25.5 3c.825 0 1.5.675 1.5 1.5v21c0 .825-.675 1.5-1.5 1.5h-21c-.825 0-1.5-.675-1.5-1.5v-21C3 3.675 3.675 3 4.5 3h21Zm0-.375h-21A1.877 1.877 0 0 0 2.625 4.5v21c0 1.034.841 1.875 1.875 1.875h21a1.877 1.877 0 0 0 1.875-1.875v-21A1.877 1.877 0 0 0 25.5 2.625Z" fill="#fff"/><path d="M10.778 6.709a1.862 1.862 0 0 0-2.154-.083L5.983 8.15h4.795V6.709ZM13.41 10.648a9.341 9.341 0 0 0 4.733-2.123H13.41v2.123ZM13.41 8.15h4.795l-2.64-1.524h-.001a1.866 1.866 0 0 0-2.154.083V8.15ZM10.778 8.525H6.045a9.34 9.34 0 0 0 4.733 2.123V8.525Z" fill="#fff"/><path d="M18.846 13.064a.938.938 0 0 0-.938.938v2.449h-.375v-3.583a.937.937 0 0 0-1.875 0v2.85h-.376v-3.597a.937.937 0 1 0-1.875 0v2.827h-.376V6.917a.937.937 0 1 0-1.875 0V17.23h-.376v-2.407c0-.595-.375-1.125-.936-1.324a.702.702 0 0 0-.935.662v4.524l-.003.002c0 .468.097.951.253 1.328L10.809 24h7.777l.96-2.328c.158-.415.237-.855.237-1.325V14a.938.938 0 0 0-.937-.937Z" fill="#fff"/></svg>
